TwEmoji_extracted/abacus.svg

<?xml version="1.0" encoding="UTF-8" standalone="no"?>
<svg
   viewBox="0 0 520 530"
   version="1.1"
   id="svg7"
   sodipodi:docname="abacus.svg"
   width="520"
   height="530"
   inkscape:version="1.4.3 (0d15f75042, 2025-12-25)"
   xmlns:inkscape="http://www.inkscape.org/namespaces/inkscape"
   xmlns:sodipodi="http://sodipodi.sourceforge.net/DTD/sodipodi-0.dtd"
   xmlns="http://www.w3.org/2000/svg"
   xmlns:svg="http://www.w3.org/2000/svg">
  <defs
     id="defs7" />
  <sodipodi:namedview
     id="namedview7"
     pagecolor="#ffffff"
     bordercolor="#000000"
     borderopacity="0.25"
     inkscape:showpageshadow="2"
     inkscape:pageopacity="0.0"
     inkscape:pagecheckerboard="0"
     inkscape:deskcolor="#d1d1d1"
     inkscape:zoom="1.0886792"
     inkscape:cx="260.40728"
     inkscape:cy="265"
     inkscape:window-width="1536"
     inkscape:window-height="786"
     inkscape:window-x="0"
     inkscape:window-y="0"
     inkscape:window-maximized="1"
     inkscape:current-layer="svg7" />
  <g
     transform="matrix(1,0,0,-1,0,448)"
     id="g7">
    <path
       d="m 43,220 v 29 h 426 v -29 z m 0,-99 v 28 H 469 V 121 Z M 43,21 V 50 H 469 V 21 Z m 0,299 v 28 h 426 v -28 z"
       fill="#ccd6dd"
       id="path1" />
    <path
       d="M 498,-21 H 14 v 455 q 0,6 4.5,10 4.5,4 9.5,4 h 15 q 6,0 10,-4 4,-4 4,-10 h 398 q 0,6 4,10 4,4 10,4 h 15 q 5,0 9.5,-4 4.5,-4 4.5,-10 z M 57,391 V -21 h 398 v 412 z"
       fill="#d5ab88"
       id="path2" />
    <path
       d="m 292,348 v -28 q 0,-9 -6.5,-15 -6.5,-6 -15.5,-6 -9,0 -15,6 -6,6 -6,15 0,-9 -6.5,-15 -6.5,-6 -15,-6 -8.5,0 -15,6 -6.5,6 -6.5,15 0,-9 -6,-15 -6,-6 -15,-6 -9,0 -15,6 -6,6 -6,15 0,-9 -6.5,-15 -6.5,-6 -15.5,-6 -9,0 -15,6 -6,6 -6,15 0,-9 -6.5,-15 -6.5,-6 -15,-6 -8.5,0 -15,6 -6.5,6 -6.5,15 v 28 q 0,9 6.5,15.5 6.5,6.5 15,6.5 8.5,0 15,-6.5 6.5,-6.5 6.5,-15.5 0,9 6,15.5 6,6.5 15,6.5 9,0 15.5,-6.5 6.5,-6.5 6.5,-15.5 0,9 6,15.5 6,6.5 15,6.5 9,0 15,-6.5 6,-6.5 6,-15.5 0,9 6.5,15.5 6.5,6.5 15,6.5 8.5,0 15,-6.5 6.5,-6.5 6.5,-15.5 0,9 6,15.5 6,6.5 15,6.5 9,0 15.5,-6.5 Q 292,357 292,348 Z m 99,-28 v 28 q 0,9 6.5,15.5 6.5,6.5 15,6.5 8.5,0 15,-6.5 Q 434,357 434,348 v -28 q 0,-9 -6.5,-15 -6.5,-6 -15,-6 -8.5,0 -15,6 -6.5,6 -6.5,15 z"
       fill="#3b94d9"
       id="path3" />
    <path
       d="m 292,249 v -29 q 0,-8 -6.5,-14.5 Q 279,199 270,199 q -9,0 -15,6.5 -6,6.5 -6,14.5 0,-8 -6.5,-14.5 -6.5,-6.5 -15,-6.5 -8.5,0 -15,6.5 -6.5,6.5 -6.5,14.5 0,-8 -6,-14.5 -6,-6.5 -15,-6.5 -9,0 -15,6.5 -6,6.5 -6,14.5 0,-8 -6.5,-14.5 Q 151,199 142,199 q -9,0 -15,6.5 -6,6.5 -6,14.5 0,-8 -6.5,-14.5 -6.5,-6.5 -15,-6.5 -8.5,0 -15,6.5 Q 78,212 78,220 v 29 q 0,9 6.5,15 6.5,6 15,6 8.5,0 15,-6 6.5,-6 6.5,-15 0,9 6,15 6,6 15,6 9,0 15.5,-6 6.5,-6 6.5,-15 0,9 6,15 6,6 15,6 9,0 15,-6 6,-6 6,-15 0,9 6.5,15 6.5,6 15,6 8.5,0 15,-6 6.5,-6 6.5,-15 0,9 6,15 6,6 15,6 9,0 15.5,-6 6.5,-6 6.5,-15 z m 99,-29 v 29 q 0,9 6.5,15 6.5,6 15,6 8.5,0 15,-6 6.5,-6 6.5,-15 v -29 q 0,-8 -6.5,-14.5 -6.5,-6.5 -15,-6.5 -8.5,0 -15,6.5 Q 391,212 391,220 Z"
       fill="#be1931"
       id="path4" />
    <path
       d="m 292,149 v -28 q 0,-9 -6.5,-15 -6.5,-6 -15.5,-6 -9,0 -15,6 -6,6 -6,15 0,-9 -6.5,-15 -6.5,-6 -15,-6 -8.5,0 -15,6 -6.5,6 -6.5,15 0,-9 -6,-15 -6,-6 -15,-6 -9,0 -15,6 -6,6 -6,15 0,-9 -6.5,-15 -6.5,-6 -15.5,-6 -9,0 -15,6 -6,6 -6,15 0,-9 -6.5,-15 -6.5,-6 -15,-6 -8.5,0 -15,6 -6.5,6 -6.5,15 v 28 q 0,9 6.5,15.5 6.5,6.5 15,6.5 8.5,0 15,-6.5 6.5,-6.5 6.5,-15.5 0,9 6,15.5 6,6.5 15,6.5 9,0 15.5,-6.5 6.5,-6.5 6.5,-15.5 0,9 6,15.5 6,6.5 15,6.5 9,0 15,-6.5 6,-6.5 6,-15.5 0,9 6.5,15.5 6.5,6.5 15,6.5 8.5,0 15,-6.5 6.5,-6.5 6.5,-15.5 0,9 6,15.5 6,6.5 15,6.5 9,0 15.5,-6.5 Q 292,158 292,149 Z m 99,-28 v 28 q 0,9 6.5,15.5 6.5,6.5 15,6.5 8.5,0 15,-6.5 Q 434,158 434,149 v -28 q 0,-9 -6.5,-15 -6.5,-6 -15,-6 -8.5,0 -15,6 -6.5,6 -6.5,15 z"
       fill="#5c913b"
       id="path5" />
    <path
       d="M 292,50 V 21 Q 292,13 285.5,6.5 279,0 270,0 q -9,0 -15,6 -6,6 -6,15 0,-9 -6.5,-15 -6.5,-6 -15,-6 -8.5,0 -15,6 -6.5,6 -6.5,15 0,-9 -6,-15 -6,-6 -15,-6 -9,0 -15,6 -6,6 -6,15 0,-9 -6.5,-15 Q 151,0 142,0 q -9,0 -15,6 -6,6 -6,15 0,-9 -6.5,-15 Q 108,0 99.5,0 91,0 84.5,6 78,12 78,21 v 29 q 0,9 6.5,15 6.5,6 15,6 8.5,0 15,-6 6.5,-6 6.5,-15 0,9 6,15 6,6 15,6 9,0 15.5,-6 6.5,-6 6.5,-15 0,9 6,15 6,6 15,6 9,0 15,-6 6,-6 6,-15 0,9 6.5,15 6.5,6 15,6 8.5,0 15,-6 6.5,-6 6.5,-15 0,9 6,15 6,6 15,6 9,0 15.5,-6 6.5,-6 6.5,-15 z m 99,-29 v 29 q 0,9 6.5,15 6.5,6 15,6 8.5,0 15,-6 6.5,-6 6.5,-15 V 21 Q 434,13 427.5,6.5 421,0 412.5,0 404,0 397.5,6.5 391,13 391,21 Z"
       fill="#ffac33"
       id="path6" />
    <path
       d="m 498,-21 q 6,0 10,-4.5 4,-4.5 4,-10.5 v -14 q 0,-6 -4,-10 -4,-4 -10,-4 H 14 q -6,0 -10,4 -4,4 -4,10 v 14 q 0,6 4,10.5 4,4.5 10,4.5 z"
       fill="#bf6952"
       id="path7" />
  </g>
</svg>

<svg xmlns="http://www.w3.org/2000/svg" viewBox="0 0 2048 2048">
<g transform="matrix(1 0 0 -1 0 2048)">
<path d="M43 220V249H469V220ZM43 121V149H469V121ZM43 21V50H469V21ZM43 320V348H469V320Z" fill="#ccd6dd" />
<path d="M498 -21H14V434Q14 440 18.5 444.0Q23 448 28 448H43Q49 448 53.0 444.0Q57 440 57 434H455Q455 440 459.0 444.0Q463 448 469 448H484Q489 448 493.5 444.0Q498 440 498 434ZM57 391V-21H455V391Z" fill="#d5ab88" />
<path d="M292 348V320Q292 311 285.5 305.0Q279 299 270.0 299.0Q261 299 255.0 305.0Q249 311 249 320Q249 311 242.5 305.0Q236 299 227.5 299.0Q219 299 212.5 305.0Q206 311 206 320Q206 311 200.0 305.0Q194 299 185.0 299.0Q176 299 170.0 305.0Q164 311 164 320Q164 311 157.5 305.0Q151 299 142.0 299.0Q133 299 127.0 305.0Q121 311 121 320Q121 311 114.5 305.0Q108 299 99.5 299.0Q91 299 84.5 305.0Q78 311 78 320V348Q78 357 84.5 363.5Q91 370 99.5 370.0Q108 370 114.5 363.5Q121 357 121 348Q121 357 127.0 363.5Q133 370 142.0 370.0Q151 370 157.5 363.5Q164 357 164 348Q164 357 170.0 363.5Q176 370 185.0 370.0Q194 370 200.0 363.5Q206 357 206 348Q206 357 212.5 363.5Q219 370 227.5 370.0Q236 370 242.5 363.5Q249 357 249 348Q249 357 255.0 363.5Q261 370 270.0 370.0Q279 370 285.5 363.5Q292 357 292 348ZM391 320V348Q391 357 397.5 363.5Q404 370 412.5 370.0Q421 370 427.5 363.5Q434 357 434 348V320Q434 311 427.5 305.0Q421 299 412.5 299.0Q404 299 397.5 305.0Q391 311 391 320Z" fill="#3b94d9" />
<path d="M292 249V220Q292 212 285.5 205.5Q279 199 270.0 199.0Q261 199 255.0 205.5Q249 212 249 220Q249 212 242.5 205.5Q236 199 227.5 199.0Q219 199 212.5 205.5Q206 212 206 220Q206 212 200.0 205.5Q194 199 185.0 199.0Q176 199 170.0 205.5Q164 212 164 220Q164 212 157.5 205.5Q151 199 142.0 199.0Q133 199 127.0 205.5Q121 212 121 220Q121 212 114.5 205.5Q108 199 99.5 199.0Q91 199 84.5 205.5Q78 212 78 220V249Q78 258 84.5 264.0Q91 270 99.5 270.0Q108 270 114.5 264.0Q121 258 121 249Q121 258 127.0 264.0Q133 270 142.0 270.0Q151 270 157.5 264.0Q164 258 164 249Q164 258 170.0 264.0Q176 270 185.0 270.0Q194 270 200.0 264.0Q206 258 206 249Q206 258 212.5 264.0Q219 270 227.5 270.0Q236 270 242.5 264.0Q249 258 249 249Q249 258 255.0 264.0Q261 270 270.0 270.0Q279 270 285.5 264.0Q292 258 292 249ZM391 220V249Q391 258 397.5 264.0Q404 270 412.5 270.0Q421 270 427.5 264.0Q434 258 434 249V220Q434 212 427.5 205.5Q421 199 412.5 199.0Q404 199 397.5 205.5Q391 212 391 220Z" fill="#be1931" />
<path d="M292 149V121Q292 112 285.5 106.0Q279 100 270.0 100.0Q261 100 255.0 106.0Q249 112 249 121Q249 112 242.5 106.0Q236 100 227.5 100.0Q219 100 212.5 106.0Q206 112 206 121Q206 112 200.0 106.0Q194 100 185.0 100.0Q176 100 170.0 106.0Q164 112 164 121Q164 112 157.5 106.0Q151 100 142.0 100.0Q133 100 127.0 106.0Q121 112 121 121Q121 112 114.5 106.0Q108 100 99.5 100.0Q91 100 84.5 106.0Q78 112 78 121V149Q78 158 84.5 164.5Q91 171 99.5 171.0Q108 171 114.5 164.5Q121 158 121 149Q121 158 127.0 164.5Q133 171 142.0 171.0Q151 171 157.5 164.5Q164 158 164 149Q164 158 170.0 164.5Q176 171 185.0 171.0Q194 171 200.0 164.5Q206 158 206 149Q206 158 212.5 164.5Q219 171 227.5 171.0Q236 171 242.5 164.5Q249 158 249 149Q249 158 255.0 164.5Q261 171 270.0 171.0Q279 171 285.5 164.5Q292 158 292 149ZM391 121V149Q391 158 397.5 164.5Q404 171 412.5 171.0Q421 171 427.5 164.5Q434 158 434 149V121Q434 112 427.5 106.0Q421 100 412.5 100.0Q404 100 397.5 106.0Q391 112 391 121Z" fill="#5c913b" />
<path d="M292 50V21Q292 13 285.5 6.5Q279 0 270.0 0.0Q261 0 255.0 6.0Q249 12 249 21Q249 12 242.5 6.0Q236 0 227.5 0.0Q219 0 212.5 6.0Q206 12 206 21Q206 12 200.0 6.0Q194 0 185.0 0.0Q176 0 170.0 6.0Q164 12 164 21Q164 12 157.5 6.0Q151 0 142.0 0.0Q133 0 127.0 6.0Q121 12 121 21Q121 12 114.5 6.0Q108 0 99.5 0.0Q91 0 84.5 6.0Q78 12 78 21V50Q78 59 84.5 65.0Q91 71 99.5 71.0Q108 71 114.5 65.0Q121 59 121 50Q121 59 127.0 65.0Q133 71 142.0 71.0Q151 71 157.5 65.0Q164 59 164 50Q164 59 170.0 65.0Q176 71 185.0 71.0Q194 71 200.0 65.0Q206 59 206 50Q206 59 212.5 65.0Q219 71 227.5 71.0Q236 71 242.5 65.0Q249 59 249 50Q249 59 255.0 65.0Q261 71 270.0 71.0Q279 71 285.5 65.0Q292 59 292 50ZM391 21V50Q391 59 397.5 65.0Q404 71 412.5 71.0Q421 71 427.5 65.0Q434 59 434 50V21Q434 13 427.5 6.5Q421 0 412.5 0.0Q404 0 397.5 6.5Q391 13 391 21Z" fill="#ffac33" />
<path d="M498 -21Q504 -21 508.0 -25.5Q512 -30 512 -36V-50Q512 -56 508.0 -60.0Q504 -64 498 -64H14Q8 -64 4.0 -60.0Q0 -56 0 -50V-36Q0 -30 4.0 -25.5Q8 -21 14 -21Z" fill="#bf6952" />
</g></svg>
